assets/icons/tram/tram_T12_carto_RVB.svg

<svg id="tram_T12_carto_RVB" xmlns="http://www.w3.org/2000/svg" width="311.7" height="311.8" viewBox="0 0 311.7 311.8">
	<path id="Tracé_17" data-name="Tracé 17" d="M28.3,311.8A28.338,28.338,0,0,1,0,283.5V28.3A28.338,28.338,0,0,1,28.3,0H283.4a28.338,28.338,0,0,1,28.3,28.3V283.4a28.338,28.338,0,0,1-28.3,28.3H28.3Z" fill="#fff"/>
	<path id="Tracé_18" data-name="Tracé 18" d="M85.6,121.3v89.6H61.5V121.3H27.9V101.7h91.3v19.6H85.6Zm88,89.6V125.1c-6.6,5.3-17.2,10.4-24.4,13.6L141.8,122c11.4-4.8,25.2-12.1,36-20.3h19V210.9Zm41.6,0V196.5c2.8-12.7,15.3-24.3,29.8-37,7.3-6.3,15.2-14.2,15.2-24.8,0-9.4-6.2-17.3-18.1-17.3-9.6,0-16.2,7-18.9,9.9l-11.4-15.2c10.5-9.1,20.3-13.5,35-13.5,19.2,0,37.3,11.1,37.3,33.4,0,18.7-11.9,27.5-25.1,39.4-5.6,5.1-16.5,14.7-17.9,21h45v18.3H215.2Z"/>
	<path id="Tracé_19" data-name="Tracé 19" d="M284.5,56.4H29.4A14.19,14.19,0,0,1,15.2,42.2V28.1A14.19,14.19,0,0,1,29.4,13.9H284.5a14.19,14.19,0,0,1,14.2,14.2V42.3a14.106,14.106,0,0,1-14.2,14.1m14.2,226.8V269a14.19,14.19,0,0,0-14.2-14.2H29.4A14.19,14.19,0,0,0,15.2,269v14.2a14.19,14.19,0,0,0,14.2,14.2H284.5a14.19,14.19,0,0,0,14.2-14.2" fill="#a50034"/>
</svg>

<?xml version="1.0" encoding="utf-8"?>
<!-- Generator: Adobe Illustrator 26.3.1, SVG Export Plug-In . SVG Version: 6.00 Build 0)  -->
<svg version="1.1" id="Layer_1" xmlns="http://www.w3.org/2000/svg" xmlns:xlink="http://www.w3.org/1999/xlink" x="0px" y="0px"
	 viewBox="0 0 311.8 311.8" style="enable-background:new 0 0 311.8 311.8;" xml:space="preserve">
<style type="text/css">
	.st0{fill:#FFFFFF;}
	.st1{fill:#A50034;}
</style>
<g>
	<path class="st0" d="M28.3,311.8C12.7,311.8,0,299.1,0,283.5V28.3C0,12.7,12.7,0,28.3,0h255.1c15.6,0,28.3,12.7,28.3,28.3v255.1
		c0,15.6-12.7,28.3-28.3,28.3H28.3z"/>
	<path d="M85.6,121.3v89.6H61.5v-89.6H27.9v-19.6h91.3v19.6H85.6z M173.6,210.9v-85.8c-6.6,5.3-17.2,10.4-24.4,13.6l-7.4-16.7
		c11.4-4.8,25.2-12.1,36-20.3h19v109.2H173.6z M215.2,210.9v-14.4c2.8-12.7,15.3-24.3,29.8-37c7.3-6.3,15.2-14.2,15.2-24.8
		c0-9.4-6.2-17.3-18.1-17.3c-9.6,0-16.2,7-18.9,9.9l-11.4-15.2c10.5-9.1,20.3-13.5,35-13.5c19.2,0,37.3,11.1,37.3,33.4
		c0,18.7-11.9,27.5-25.1,39.4c-5.6,5.1-16.5,14.7-17.9,21h45v18.3H215.2z"/>
	<path class="st1" d="M284.5,56.4H29.4c-7.8,0-14.2-6.3-14.2-14.2V28.1c0-7.8,6.3-14.2,14.2-14.2h255.1c7.8,0,14.2,6.3,14.2,14.2
		v14.2C298.7,50.1,292.4,56.4,284.5,56.4 M298.7,283.2V269c0-7.8-6.3-14.2-14.2-14.2H29.4c-7.8,0-14.2,6.3-14.2,14.2v14.2
		c0,7.8,6.3,14.2,14.2,14.2h255.1C292.4,297.4,298.7,291,298.7,283.2"/>
</g>
</svg>
